Origami/64x64/apps/virtualbox.svg

<svg width="64" height="64" version="1" xmlns="http://www.w3.org/2000/svg">
 <rect transform="matrix(0,-1,-1,0,0,0)" x="-60" y="-60" width="56" height="56" rx="3" ry="3" style="fill:#4289d6"/>
 <path d="m7 4c-1.662 0-3 1.338-3 3v1c0-1.662 1.338-3 3-3h50c1.662 0 3 1.338 3 3v-1c0-1.662-1.338-3-3-3h-50z" style="fill:#ffffff;opacity:.1"/>
 <path d="m31 15-7 23-4-13h-8v4h6l6 22 7-24 4 12 5-14 4 14h8v-4h-5c-2.182-6.726-7-19-7-19l-5 13z" style="opacity:.2"/>
 <path d="m31 14-7 23-4-13h-8v4h6l6 22 7-24 4 12 5-14 4 14h8v-4h-5c-2.182-6.726-7-19-7-19l-5 13z" style="fill:#ffffff"/>
 <path d="m4 57v1c0 1.662 1.338 3 3 3h50c1.662 0 3-1.338 3-3v-1c0 1.662-1.338 3-3 3h-50c-1.662 0-3-1.338-3-3z" style="opacity:.2"/>
</svg>

<svg xmlns="http://www.w3.org/2000/svg" width="64" height="64" version="1">
 <rect style="fill:#4289d6" width="56" height="56" x="-60" y="-60" rx="3" ry="3" transform="matrix(0,-1,-1,0,0,0)"/>
 <path style="opacity:0.1;fill:#ffffff" d="M 7 4 C 5.338 4 4 5.338 4 7 L 4 8 C 4 6.338 5.338 5 7 5 L 57 5 C 58.662 5 60 6.338 60 8 L 60 7 C 60 5.338 58.662 4 57 4 L 7 4 z"/>
 <path style="opacity:0.2" d="m 31,15 -7,23 -4,-13 -8,0 0,4 6,0 6,22 7,-24 4,12 5,-14 4,14 8,0 0,-4 -5,0 C 44.818,28.274 40,16 40,16 l -5,13 z"/>
 <path style="fill:#ffffff" d="m 31,14 -7,23 -4,-13 -8,0 0,4 6,0 6,22 7,-24 4,12 5,-14 4,14 8,0 0,-4 -5,0 C 44.818,27.274 40,15 40,15 l -5,13 z"/>
 <path style="opacity:0.2" d="m 4,57 0,1 c 0,1.662 1.338,3 3,3 l 50,0 c 1.662,0 3,-1.338 3,-3 l 0,-1 c 0,1.662 -1.338,3 -3,3 L 7,60 C 5.338,60 4,58.662 4,57 Z"/>
</svg>
